X:1
T:Le pain polka
M:2/4
L:1/16
Q:110
C:(c) Greg Anderson, 26 Oct 1999
R:Polka
N:On one of my first trips to the boulangerie I came across a bread the
N:French call "pain polka" and just couldn't resist the obvious....
K:D
F2D2 DDEF|G2E2 E2d2|c2(3BcB G2E2|F2G2 A2AG|F2D2 DDEF|
!G2E2 E2d2|1c2(3BcB G2C2|D4- D2AG:|2c2(3BcB A2c2|d4- d2 BA
K:A
|:G2EG B2GB|d2 d4 d2|!c2Ac e2ce|a2 a4 a=e|f2d2 B2f2|
efed c2e2|d2(3BcB G2E2|1A4- A2BA:|2A3=G F2E2||
